packages/calcite-ui-icons/icons/transcript-24.svg

<svg xmlns="http://www.w3.org/2000/svg" viewBox="0 0 24 24"><path d="M18 11H6v-1h12v1zm-3 7H6v1h9v-1zm6-17v22H3V1h18zm-1 1H4v20h16V2zM9 6H6v1h3V6zm1 0v1h8V6h-8zm3 8H6v1h7v-1zm1 0v1h4v-1h-4z"/><path fill="none" d="M0 0h24v24H0z"/></svg>

<?xml version="1.0" encoding="UTF-8"?><svg id="icons" xmlns="http://www.w3.org/2000/svg" viewBox="0 0 24 24"><path d="M18,11H6v-1h12v1ZM15,18H6v1h9v-1ZM21,1v22H3V1h18ZM20,2H4v20h16V2ZM9,6h-3v1h3v-1ZM10,6v1h8v-1h-8ZM13,14h-7v1h7v-1ZM14,14v1h4v-1h-4Z"/><rect width="24" height="24" style="fill:none;"/></svg>
